X: 34211
T: Reel Saint-Antoine
R: reel
M: 4/4
K: Amajor
a2aa aece|a2aa aece|agfe dcBA|GABc defg|
a2aa aece|a2aa aece|agfe dcBA|GABG A2z2:|
ABc2 cccA|cedc BAGA|Bcd2 dddB|dfed cBAE|
ABc2 cccA|cedc BAGA|Bcde fgaf|edcA BGA2:|

